src/svg/ue90d-close2.svg

<!-- Generated by IcoMoon.io -->
<svg version="1.1" xmlns="http://www.w3.org/2000/svg" width="32" height="32" viewBox="0 0 32 32">
<path d="M31.566 29.417l-2.149 2.149c-0.29 0.29-0.647 0.437-1.074 0.437-0.425-0.002-0.784-0.146-1.074-0.439l-11.269-11.269-11.271 11.266c-0.29 0.295-0.649 0.437-1.074 0.437-0.425 0.002-0.782-0.142-1.072-0.434l-2.149-2.149c-0.29-0.288-0.437-0.649-0.434-1.072 0-0.425 0.142-0.784 0.434-1.079l11.266-11.266-11.264-11.271c-0.29-0.286-0.437-0.645-0.437-1.070s0.146-0.784 0.437-1.074l2.149-2.149c0.29-0.29 0.649-0.437 1.077-0.437s0.784 0.146 1.074 0.434l11.271 11.271 11.266-11.271c0.29-0.288 0.649-0.434 1.074-0.434s0.784 0.146 1.074 0.437l2.149 2.149c0.283 0.29 0.43 0.649 0.43 1.074s-0.146 0.784-0.437 1.070l-11.266 11.271 11.266 11.266c0.29 0.295 0.437 0.647 0.437 1.079 0.002 0.425-0.144 0.784-0.434 1.074z"></path>
</svg>

<svg xmlns="http://www.w3.org/2000/svg" width="32" height="32"><path d="M31.566 29.417l-2.149 2.149a1.46 1.46 0 0 1-1.074.437 1.46 1.46 0 0 1-1.074-.439L16 20.295 4.729 31.561c-.29.295-.649.437-1.074.437a1.44 1.44 0 0 1-1.072-.434L.434 29.415A1.444 1.444 0 0 1 0 28.343c0-.425.142-.784.434-1.079L11.7 15.998.436 4.727c-.29-.286-.437-.645-.437-1.07s.146-.784.437-1.074L2.585.434c.29-.29.649-.437 1.077-.437s.784.146 1.074.434l11.271 11.271L27.273.431c.29-.288.649-.434 1.074-.434s.784.146 1.074.437l2.149 2.149c.283.29.43.649.43 1.074s-.146.784-.437 1.07L20.297 15.998l11.266 11.266c.29.295.437.647.437 1.079.002.425-.144.784-.434 1.074z"/></svg>
